src/assets/duotone/Edit.svg

<svg width="24" height="24" viewBox="0 0 24 24"  xmlns="http://www.w3.org/2000/svg">
<path opacity="0.4" d="M15.48 3H7.52C4.07 3 2 5.06 2 8.52V16.47C2 19.94 4.07 22 7.52 22H15.47C18.93 22 20.99 19.94 20.99 16.48V8.52C21 5.06 18.93 3 15.48 3Z" />
<path d="M21.02 2.98028C19.23 1.18028 17.48 1.14028 15.64 2.98028L14.51 4.10028C14.41 4.20028 14.38 4.34028 14.42 4.47028C15.12 6.92028 17.08 8.88028 19.53 9.58028C19.56 9.59028 19.61 9.59028 19.64 9.59028C19.74 9.59028 19.84 9.55028 19.91 9.48028L21.02 8.36028C21.93 7.45028 22.38 6.58028 22.38 5.69028C22.38 4.79028 21.93 3.90028 21.02 2.98028Z" />
<path d="M17.8601 10.4198C17.5901 10.2898 17.3301 10.1598 17.0901 10.0098C16.8901 9.88984 16.6901 9.75984 16.5001 9.61984C16.3401 9.51984 16.1601 9.36984 15.9801 9.21984C15.9601 9.20984 15.9001 9.15984 15.8201 9.07984C15.5101 8.82984 15.1801 8.48984 14.8701 8.11984C14.8501 8.09984 14.7901 8.03984 14.7401 7.94984C14.6401 7.83984 14.4901 7.64984 14.3601 7.43984C14.2501 7.29984 14.1201 7.09984 14.0001 6.88984C13.8501 6.63984 13.7201 6.38984 13.6001 6.12984C13.4701 5.84984 13.3701 5.58984 13.2801 5.33984L7.9001 10.7198C7.5501 11.0698 7.2101 11.7298 7.1401 12.2198L6.7101 15.1998C6.6201 15.8298 6.7901 16.4198 7.1801 16.8098C7.5101 17.1398 7.9601 17.3098 8.4601 17.3098C8.5701 17.3098 8.6801 17.2998 8.7901 17.2898L11.7601 16.8698C12.2501 16.7998 12.9101 16.4698 13.2601 16.1098L18.6401 10.7298C18.3901 10.6498 18.1401 10.5398 17.8601 10.4198Z" />
</svg>

<?xml version="1.0" encoding="UTF-8"?>
<svg width="24" height="24" viewBox="0 0 24 24" xmlns="http://www.w3.org/2000/svg">
 <path d="M15.48 3H7.52C4.07 3 2 5.06 2 8.52V16.47C2 19.94 4.07 22 7.52 22H15.47C18.93 22 20.99 19.94 20.99 16.48V8.52C21 5.06 18.93 3 15.48 3Z" opacity=".4"/>
 <path d="m21.02 2.9803c-1.79-1.8-3.54-1.84-5.38 0l-1.13 1.12c-0.1 0.1-0.13 0.24-0.09 0.37 0.7 2.45 2.66 4.41 5.11 5.11 0.03 0.01 0.08 0.01 0.11 0.01 0.1 0 0.2-0.04 0.27-0.11l1.11-1.12c0.91-0.91 1.36-1.78 1.36-2.67 0-0.9-0.45-1.79-1.36-2.71z"/>
 <path d="m17.86 10.42c-0.27-0.13-0.53-0.26-0.77-0.41-0.2-0.11996-0.4-0.24996-0.59-0.38996-0.16-0.1-0.34-0.25-0.52-0.4-0.02-0.01-0.08-0.06-0.16-0.14-0.31-0.25-0.64-0.59-0.95-0.96-0.02-0.02-0.08-0.08-0.13-0.17-0.1-0.11-0.25-0.3-0.38-0.51-0.11-0.14-0.24-0.34-0.36-0.55-0.15-0.25-0.28-0.5-0.4-0.76-0.13-0.28-0.23-0.54-0.32-0.79l-5.38 5.38c-0.35 0.35-0.69 1.01-0.76 1.5l-0.43 2.98c-0.09 0.63 0.08 1.22 0.47 1.61 0.33 0.33 0.78 0.5 1.28 0.5 0.11 0 0.22-0.01 0.33-0.02l2.97-0.42c0.49-0.07 1.15-0.4 1.5-0.76l5.38-5.38c-0.25-0.08-0.5-0.19-0.78-0.31z"/>
</svg>
